X:12017
T:Liverpool Hornpipe
R:Hornpipe
C:Trad.
O:England
Z:Paul Hardy's Session Tunebook 2015 (see www.paulhardy.net). Creative Commons cc by-nc-sa licenced.
M:4/4
L:1/8
Q:1/4=120
K:D
AG|"D"FDFA dfaf|"G"gfed "A"dcBA|"G"G2BG "D"F2AF|"Em"EDEF "A7"GBAG|
"D"FDFA dfaf|"G"gfed "A"dcBA|"D"dfaf "A7"bgec|"D"d2f2 d2:|
|:(3ABc|"D"d2fd "A"c2ec|"G"BABc dcBA|"G"G2BG "D"F2AF|"Em"EDEF "A7"GBAG|
"D"FDFA dfaf|"G"gfec "A"dcBA|"D"dfaf "A7"bgec|"D"d2f2 d2:|
|:(3ABc|"D"dfdf "A"cece|"G"BABc dcBA|"G"GBGB "D"FAFA|"Em"EDEF "A7"GBAG|
"D"FDFA dfaf|"G"gfec "A"dcBA|"D"dfaf "A7"bgec|"D"d2f2 d2:|

